icons/members-brackets-16.svg

<?xml version="1.0" encoding="UTF-8"?><svg id="icons" xmlns="http://www.w3.org/2000/svg" viewBox="0 0 16 16"><defs><style>.cls-1{fill:none;}.cls-1,.cls-2{stroke-width:0px;}</style></defs><path class="cls-2" d="M15,1v5h-1V2h-4v-1h5ZM2,10h-1v5h5v-1H2v-4ZM14,14h-4v1h5v-5h-1v4ZM2,2h4v-1H1v5h1V2ZM4,5.5c0,.62836.24078,1.19635.62469,1.63599-.94116.3197-1.62469,1.20197-1.62469,2.24976v1.61426h2.04395c.04095-.34943.12201-.68756.26422-1h-1.30817v-.61426c0-.76367.62207-1.38574,1.38574-1.38574h.66248c-.02472-.16553-.04822-.33154-.04822-.5,0-.19659.02673-.38623.05804-.5741-.6106-.19-1.05804-.7536-1.05804-1.4259,0-.82715.67285-1.5,1.5-1.5.46185,0,.87048.21429,1.14581.54358.28888-.18188.60693-.31683.94421-.40839-.44684-.68207-1.21515-1.13519-2.09003-1.13519-1.37891,0-2.5,1.12109-2.5,2.5ZM13,13h-7v-1.61426c0-1.04779.68353-1.93005,1.62469-2.24976-.38391-.43964-.62469-1.00763-.62469-1.63599,0-1.37891,1.12109-2.5,2.5-2.5s2.45,1.12109,2.45,2.5c0,.62836-.19078,1.19635-.57469,1.63599.94116.3197,1.62469,1.20197,1.62469,2.24976v1.61426ZM8,7.5c0,.82715.67285,1.5,1.5,1.5s1.5-.67285,1.5-1.5-.67285-1.5-1.5-1.5-1.5.67285-1.5,1.5ZM12,11.38574c0-.76367-.62207-1.38574-1.38574-1.38574h-2.22852c-.76367,0-1.38574.62207-1.38574,1.38574v.61426h5v-.61426Z"/><rect class="cls-1" width="16" height="16"/></svg>

<svg xmlns="http://www.w3.org/2000/svg" viewBox="0 0 16 16"><path d="M15 1v5h-1V2h-4V1h5zM2 10H1v5h5v-1H2v-4zm12 4h-4v1h5v-5h-1v4zM2 2h4V1H1v5h1V2zm2 3.5c0 .628.24 1.196.625 1.636A2.381 2.381 0 0 0 3 9.386V11h2.044c.04-.35.122-.688.264-1H4v-.614C4 8.622 4.622 8 5.386 8h.662A3.384 3.384 0 0 1 6 7.5a3.5 3.5 0 0 1 .058-.574A1.497 1.497 0 0 1 5 5.5C5 4.673 5.673 4 6.5 4c.462 0 .87.214 1.146.544a3.49 3.49 0 0 1 .944-.409A2.496 2.496 0 0 0 4 5.5zm9 7.5H6v-1.614c0-1.048.684-1.93 1.625-2.25A2.479 2.479 0 0 1 7 7.5C7 6.121 8.121 5 9.5 5s2.45 1.121 2.45 2.5c0 .628-.19 1.196-.575 1.636A2.381 2.381 0 0 1 13 11.386V13zM8 7.5C8 8.327 8.673 9 9.5 9S11 8.327 11 7.5 10.327 6 9.5 6 8 6.673 8 7.5zm4 3.886c0-.764-.622-1.386-1.386-1.386H8.386C7.622 10 7 10.622 7 11.386V12h5v-.614z" stroke-width="0"/><path stroke-width="0" fill="none" d="M0 0h16v16H0z"/></svg>
